icons/evolvere-blue-folders-flat-vivid-dark-fallback/apps/64/im-twitter.svg

<?xml version="1.0" encoding="UTF-8" standalone="no"?>
<!-- Created with Inkscape (http://www.inkscape.org/) -->

<svg
   xmlns:dc="http://purl.org/dc/elements/1.1/"
   xmlns:cc="http://creativecommons.org/ns#"
   xmlns:rdf="http://www.w3.org/1999/02/22-rdf-syntax-ns#"
   xmlns:svg="http://www.w3.org/2000/svg"
   xmlns="http://www.w3.org/2000/svg"
   xmlns:sodipodi="http://sodipodi.sourceforge.net/DTD/sodipodi-0.dtd"
   xmlns:inkscape="http://www.inkscape.org/namespaces/inkscape"
   width="64"
   height="64"
   id="svg13094"
   version="1.1"
   inkscape:version="0.91+devel r"
   sodipodi:docname="im-twitter.svg">
  <sodipodi:namedview
     id="base"
     pagecolor="#ffffff"
     bordercolor="#666666"
     borderopacity="1.0"
     inkscape:pageopacity="0"
     inkscape:pageshadow="2"
     inkscape:zoom="11.313709"
     inkscape:cx="18.041654"
     inkscape:cy="31.414528"
     inkscape:document-units="px"
     inkscape:current-layer="svg13094"
     showgrid="false"
     inkscape:snap-bbox="true"
     inkscape:bbox-paths="true"
     inkscape:bbox-nodes="true"
     inkscape:snap-bbox-edge-midpoints="true"
     inkscape:snap-bbox-midpoints="true"
     inkscape:object-paths="true"
     inkscape:snap-intersection-paths="true"
     inkscape:object-nodes="true"
     inkscape:snap-smooth-nodes="true"
     inkscape:snap-midpoints="true"
     inkscape:snap-object-midpoints="true"
     inkscape:snap-center="true"
     showguides="true"
     inkscape:guide-bbox="true"
     inkscape:window-width="1920"
     inkscape:window-height="1023"
     inkscape:window-x="-10"
     inkscape:window-y="35"
     inkscape:window-maximized="1"
     inkscape:snap-global="true"
     fit-margin-top="0"
     fit-margin-left="0"
     fit-margin-right="0"
     fit-margin-bottom="0"
     showborder="true"
     inkscape:showpageshadow="false"
     inkscape:snap-page="true">
    <inkscape:grid
       type="xygrid"
       id="grid3075"
       empspacing="5"
       visible="true"
       enabled="true"
       snapvisiblegridlinesonly="true"
       originx="0px"
       originy="18px" />
  </sodipodi:namedview>
  <defs
     id="defs13096" />
  <metadata
     id="metadata13099">
    <rdf:RDF>
      <cc:Work
         rdf:about="">
        <dc:format>image/svg+xml</dc:format>
        <dc:type
           rdf:resource="http://purl.org/dc/dcmitype/StillImage" />
        <dc:title></dc:title>
      </cc:Work>
    </rdf:RDF>
  </metadata>
  <path
     id="path3398"
     d="m 0,4 0,30 0,28 2,2 30,0 30,0 2,-2 L 64,34 64,4 32,4 0,4 z"
     style="color:#000000;fill:#39a3f7;fill-opacity:1;fill-rule:nonzero;stroke:none;stroke-width:2.28571415;marker:none;visibility:visible;display:inline;overflow:visible;enable-background:accumulate"
     inkscape:connector-curvature="0" />
  <path
     inkscape:connector-curvature="0"
     style="color:#000000;fill:#7bdcff;fill-opacity:1;fill-rule:nonzero;stroke:none;stroke-width:2.28571415;marker:none;visibility:visible;display:inline;overflow:visible;enable-background:accumulate"
     d="M 2,0 0,1 0,4 32,4 64,4 64,1 62,0 32,0 2,0 z"
     id="path3447" />
  <path
     style="fill:#9ee5ff;fill-opacity:1;fill-rule:nonzero"
     d="M 0,3 0,6 2,4 Z"
     id="path4298"
     inkscape:connector-curvature="0"
     sodipodi:nodetypes="cccc" />
  <path
     d="M 64,6 62,4 64,3 z"
     id="path3028"
     style="fill:#59befb;fill-opacity:1"
     inkscape:connector-curvature="0" />
  <g
     id="g3043"
     inkscape:export-filename="folder.png"
     inkscape:export-xdpi="90"
     inkscape:export-ydpi="90"
     transform="translate(-0.625,0.082283)" />
  <g
     id="scalable"
     transform="matrix(1.0385892,0,0,1.0385892,1214.7222,1878.8121)"
     inkscape:label="#g3701"
     style="fill:#ffffff" />
  <path
     id="path3835"
     d="m 56.212589,20.989928 c -1.70736,0.753452 -3.539151,1.26497 -5.460806,1.493081 1.963127,-1.17511 3.470023,-3.041462 4.175112,-5.260345 -1.838712,1.092161 -3.870967,1.880176 -6.034558,2.308746 -1.735006,-1.845615 -4.202743,-2.999987 -6.940046,-2.999987 -5.246526,0 -9.504554,4.258044 -9.504554,9.504565 0,0.746539 0.08294,1.472342 0.248831,2.163583 -7.900873,-0.394006 -14.903139,-4.182008 -19.589768,-9.933133 -0.815649,1.40322 -1.285708,3.034548 -1.285708,4.776476 0,3.297218 1.679704,6.207344 4.230398,7.907798 -1.555288,-0.04839 -3.020726,-0.476957 -4.306421,-1.188937 0,0.04148 0,0.07604 0,0.117512 0,4.603666 3.276464,8.446963 7.624371,9.317928 -0.794927,0.214285 -1.638232,0.331798 -2.502301,0.331798 -0.615198,0 -1.209645,-0.06221 -1.790292,-0.17281 1.209659,3.774174 4.721167,6.525313 8.875515,6.60135 -3.255728,2.55068 -7.347883,4.07141 -11.806389,4.07141 -0.767271,0 -1.520725,-0.04839 -2.2672722,-0.131337 4.2027412,2.695839 9.2004232,4.271871 14.5713512,4.271871 17.481503,0 27.041371,-14.481499 27.041371,-27.041348 0,-0.414744 -0.007,-0.822578 -0.02766,-1.230411 1.859447,-1.341007 3.470023,-3.013809 4.741917,-4.921634 z"
     class="fil0"
     style="color:#000000;fill:#e3eff7;fill-opacity:1;fill-rule:nonzero;stroke:none;marker:none;visibility:visible;display:inline;overflow:visible;enable-background:accumulate"
     inkscape:connector-curvature="0" />
</svg>

<svg xmlns="http://www.w3.org/2000/svg" viewBox="0 0 64 64"><g color="#000"><path d="m0 4v30 28l2 2h30 30l2-2v-28-30h-32-32" fill="#39a3f7"/><path d="m2 0l-2 1v3h32 32v-3l-2-1h-30-30" fill="#7bdcff"/></g><path d="m0 3v3l2-2" fill="#9ee5ff"/><path d="m64 6l-2-2 2-1z" fill="#59befb"/><path d="m56.21 20.99c-1.707.753-3.539 1.265-5.461 1.493 1.963-1.175 3.47-3.041 4.175-5.26-1.839 1.092-3.871 1.88-6.03 2.309-1.735-1.846-4.203-3-6.94-3-5.247 0-9.505 4.258-9.505 9.505 0 .747.083 1.472.249 2.164-7.901-.394-14.903-4.182-19.59-9.933-.816 1.403-1.286 3.035-1.286 4.776 0 3.297 1.68 6.207 4.23 7.908-1.555-.048-3.02-.477-4.306-1.189 0 .041 0 .076 0 .118 0 4.604 3.276 8.447 7.624 9.318-.795.214-1.638.332-2.502.332-.615 0-1.21-.062-1.79-.173 1.21 3.774 4.721 6.525 8.876 6.601-3.256 2.551-7.348 4.071-11.806 4.071-.767 0-1.521-.048-2.267-.131 4.203 2.696 9.2 4.272 14.571 4.272 17.482 0 27.04-14.481 27.04-27.04 0-.415-.007-.823-.028-1.23 1.859-1.341 3.47-3.01 4.742-4.922z" fill="#e3eff7" color="#000"/></svg>
